X:17980
T:Union
M:C
L:1/8
K:A Major
df|e2cA eAcA|eAcA Bcdf|e2cA eAcA|Bcdc BAFA|!
e2cA eAcA|eAcA Bcdf|efec dcBA|FABc d2|]!
K:D Major
Bc|dff2 dfef|dff2 afef|dff2 dfec|dcBA FA:|!
